!!!COM: Haydn, Franz Joseph
!!!OTL: String Quartet in B-flat Major
!!!OPS: Opus 76
!!!ONM: No. 4
!!!OMD: Finale: Allegro ma non troppo
!!!OMV: 4
!!!SCT: H III:78
!!!SCA: Thematisch-bibliographisches Werkevererzeichnis (A. van Hoboken)
!!!YOR: Trautwein Edition
!!!ENC: Frances Bennion
!!!CDT: 1732/3/31/-1809/5/31/
!!!CNT: Oesterreich
!!!YEC: Copyright (c) 1994, 2000 Center for Computer Assisted Research in the Humanities
!!!YEM: Rights to all derivative editions reserved.
!!!YEM: Refer to licensing agreement for further details.
!!!YEN: United States of America
**kern	**kern	**kern	**kern
*k[b-e-]	*k[b-e-]	*k[b-e-]	*k[b-e-]
*B-:	*B-:	*B-:	*B-:
*clefF4	*clefC3	*clefF	*clefF
*M2/2	*M2/2	*M2/2	*M2/2
2.r	2.r	2.r	2.r
4r	4r	8f	8ff
.	.	8a	8ee-
=1	=1	=1	=1
2.r	4r	4b-	4dd
.	8c	8e-	4ee-
.	8d	8f	.
.	4e-	4g	4cc
8BB-	8d	8f	8dd
8C	8e-	8e-	8cc
=2	=2	=2	=2
4D	4f	4d	4b-
4E-	4g	8c	4cc
.	.	8B-	.
4F	4c	4A	4f
4E-	8d	8B-	8g
.	8e-	8c	8a
=3	=3	=3	=3
4D	4f	4d	4b-
4C	4e-	4e-	4cc
4BB-	4d	4f	4dd
4EE-	4c	4b-	4gg
=4	=4	=4	=4
2FF	4c	8a	8cc
.	.	8b-	8b-
.	2.r	8a	8cc
.	.	8b-	8dd
2r	.	4a	4cc
.	.	8f	8ff
.	.	8a	8ee-
=5	=5	=5	=5
2.r	4r	4b-	4dd
.	8c	8e-	4ee-
.	8d	8f	.
.	4e-	4g	4cc
8BB-	8d	8f	8dd
8C	8e-	8e-	8cc
=6	=6	=6	=6
4D	4f	4d	4b-
4E-	4g	8c	4cc
.	.	8B-	.
4F	4c	4A	4f
4E-	8d	8B-	8g
.	8e-	8c	8a
=7	=7	=7	=7
4D	4f	8d	4b-
.	.	8dd	.
4E	4g	8cc	4bb-
.	.	8b-	.
2F	4f	4b-	2cc
.	4e-	4a	.
=8	=8	=8	=8
4BB-	4d	4b-	4b-
4B-	2.r	2r	4f
4BB-	.	.	4d
4r	.	8f	8a
.	.	8g	8b-
=9	=9	=9	=9
1r	4f	4a	4cc
.	8e-	4b-	4dd
.	8d	.	.
.	4c	4cc	4ee-
.	4r	8g	8b-
.	.	8a	8cc
=10	=10	=10	=10
2.r	4g	4b-	4dd
.	8f	4cc	4ee-
.	8e-	.	.
.	4d	4dd	4ff
8B-	8dd	8gg	8gg
8A	8cc	8ff#	8aa
=11	=11	=11	=11
4G	4b-	4gg	4bb-
4GG	4g	4b-	4ddd
4D	4cc	8a	2ff#
.	.	8ee-	.
4d	8b-	8dd	.
.	8a	8cc	.
=12	=12	=12	=12
4e-	4g	4b-	2.gg
8d	8f	4cc	.
8c	8e-	.	.
4B	4d	4dd	.
4r	4r	8dd	8ff
.	.	8ee-	8gg
=13	=13	=13	=13
1r	4r	4ff	4aa-
.	4g	8ee-	8gg
.	.	8dd	8ff
.	4a-	4cc	4ee-
.	8g	4dd	4ff
.	8f	.	.
=14	=14	=14	=14
1r	4e-	4ee-	4gg
.	4f	8dd	8ff
.	.	8cc	8ee-
.	4g	4b-	4dd
.	8f	4cc	4ee-
.	8e-	.	.
=15	=15	=15	=15
2.r	4d	4dd	4ff
.	4e-	8cc	8ee-
.	.	8b-	8dd
.	4f	4a	4cc
8B-	4f	8dd	4dd
8A	.	8cc	.
=16	=16	=16	=16
8G	8g	8b-	8ee
8F	8a	8a	8ff
8E	8b-	8g	8gg
8D	8cc	8f	8aa
4C	4dd	4e	4bb-
8c	8b-	4g	4ee
8B-	8g	.	.
=17	=17	=17	=17
8A	4f	4a	4ff
8F	.	.	.
8c	4b-	4g	4ee
8B-	.	.	.
8A	4cc	4f	4ff
8F	.	.	.
8C	8b-	4g	4ee
8BB-	8g	.	.
=18	=18	=18	=18
8AA	4f	4a	4ff
8FF	.	.	.
8C	8c	4g	4ee
8BB-	8B-	.	.
8AA	8A	4f	4ff
8FF	8F	.	.
4r	4r	8f	8a
.	.	8g	8b-
=19	=19	=19	=19
4FF	4F	8a	8cc
.	.	8f	8a
2.r	2.r	8a	8cc
.	.	8b-	8dd
.	.	8cc	8ee-
.	.	8a	8cc
.	.	8cc	8ee-
.	.	8dd	8ff
=20	=20	=20	=20
4FF	4C 4A	2.ee-	2.gg
2.r	2.r	.	.
.	.	8dd	8ff
.	.	8cc	8ee-
=21	=21	=21	=21
4FF	4A 4C	2.ee-	2.gg
2.r	2.r	.	.
.	.	8dd	8ff
.	.	8cc	8ee-
=22	=22	=22	=22
4FF	4C 4A	8ee-	8gg
.	.	8dd	8ff
2.r	2.r	8cc	8ee-
.	.	8ee-	8gg
.	.	8dd	8ff
.	.	8cc	8ee-
.	.	8ee-	8gg
.	.	8dd	8ff
=23	=23	=23	=23
1r	1r	8cc	8ee-
.	.	8ee-	8gg
.	.	8dd	8ff
.	.	8cc	8ee-
.	.	8ee-	8gg
.	.	8dd	8ff
.	.	8cc	8ee-
.	.	8ee-	8gg
=24	=24	=24	=24
1r	1r	8dd	8ff
.	.	8cc	8ee-
.	.	8ee-	8gg
.	.	8dd	8ff
.	.	8cc	8ee-
.	.	8ee-	8gg
.	.	8f	8ff
.	.	8a	8ee-
=25	=25	=25	=25
2.r	4r	4b-	4dd
.	8c	8e-	4ee-
.	8d	8f	.
.	4e-	4g	4cc
8BB-	8d	8f	8dd
8C	8e-	8e-	8cc
=26	=26	=26	=26
4D	4f	4d	4b-
4E-	4g	8c	4cc
.	.	8B-	.
4F	4c	4A	4f
4E-	8d	8B-	8g
.	8e-	8c	8a
=27	=27	=27	=27
4D	4f	4d	4b-
4C	4e-	4e-	4cc
4BB-	4d	4f	4dd
4EE-	4c	4b-	4gg
=28	=28	=28	=28
[1FF	2c	8a	8cc
.	.	8b-	8b-
.	.	8a	8cc
.	.	8b-	8dd
.	4r	4a	4cc
.	8dd	8ff	4r
.	8cc	8ee-	.
=29	=29	=29	=29
1FF_	4b	4dd	8gg
.	.	.	8ff
.	4cc	4ee-	4ee-
.	4a	4cc	4ff
.	8b-	8dd	4dd
.	8a	8cc	.
=30	=30	=30	=30
2.FF]	4g	4b-	8ee-
.	.	.	8dd
.	4a	4cc	4cc
.	4f	4a	4dd
8G	4d	8b-	4b-
8F	.	8a	.
=31	=31	=31	=31
4E-	8e-	4g	8cc
.	8d	.	8b-
8F	4c	8a	4a
8E-	.	8g	.
4D	4d	4f	4b-
4AA	4f	4cc	4ee- 4f
=32	=32	=32	=32
4BB-	4B-	4b-	4dd 4f
2r	2r	4e-	4gg 4b-
.	.	4d	4b- 4ff
4D	4f	4aa-	4aa- 4b-
=33	=33	=33	=33
4E-	4B-	4gg	4b- 4gg
4E	4d-	4b- 4g	4bb-
2F	4f	4b- 4f	2cc
.	4f	4a 4e-	.
=34	=34	=34	=34
4B-	4f	4d 4b-	4b-
4F	2.r	4.r	2r
4BB-	.	.	.
.	.	4.r	.
4r	.	.	8ff
.	.	.	8bb-
=35	=35	=35	=35
4BB-	4F	4ff	8ddd-
.	.	.	8bb-
4C	8c	4ee-	8aa
.	8A	.	8ccc
4D-	4B-	4dd-	4bb-
4E-	4c	4gg-	8b-
.	.	.	8gg-
=36	=36	=36	=36
4F	4d-	4ff	8ff
.	.	.	8b-
4A	8e-	4cc	8a
.	8f	.	8ee-
4B-	4B-	4dd-	4dd-
4A-	4f	4B-	4dd
=37	=37	=37	=37
4G-	4e-	4b-	4ee-
4F	4dd	4a-	4ff
4E-	4ee-	4g-	4gg-
4G-	4A-	4e-	4cc
=38	=38	=38	=38
4F	4a-	4f	4dd-
4E-	4cc	4g-	4ee-
4D-	4dd-	4a-	4ff
4C	4c	4e-	4A- 4a-
=39	=39	=39	=39
4D-	4d-	4f	4A- 4a-
4E-	4e-	4g-	4a- 4A-
4C	4c	4e-	4a- 4A-
4D-	4d-	4f	4a- 4A-
=40	=40	=40	=40
4E-	4e-	4g-	4.a- 4.A-
4C	4c	4e-	.
.	.	.	8g-
4D-	4A-	4f	4f
4G	4A-	4e	4b-
=41	=41	=41	=41
4A-	4A-	4f	4a-
4G	2A-	4e	4b-
4A-	.	4f	4a-
4AA-	8e-	4c	8gg-
.	8g-	.	8ee-
=42	=42	=42	=42
4D-	4f	4d-	4dd-
4DD-	4D-	2r	4ddd-
4r	4r	.	4r
4c	4a-	4ee-	4gg-
=43	=43	=43	=43
4d-	4a-	4dd-	4ff
4c	4a-	4ee-	4gg-
4d-	4a-	4dd-	4ff
4d	4cc-	4ff	4aa-
=44	=44	=44	=44
4e-	4b-	4ee-	4gg-
4d	4cc-	4ff	4aa-
4e-	4b-	4ee-	4gg-
4e	4dd-	4gg	4bb-
=45	=45	=45	=45
4f	4cc	4ff	4aa
4e	4dd-	4gg	4bb-
4f	4cc	4ff	4aa
[4f	4b-	4ee	4ddd-
=46	=46	=46	=46
4f]	4a	4ff	4ccc
2f	4b-	4ee	4ddd-
.	4a	4ff	4ccc
4g-	[4cc	4b-	8bb-
.	.	.	8ee
=47	=47	=47	=47
4f	4cc]	4a	8ff
.	.	.	8cc
4g-	2cc	4b-	8bb-
.	.	.	8ee
4f	.	4a	8ff
.	.	.	8cc
4g-	[4cc	4b-	8bb-
.	.	.	8ee
=48	=48	=48	=48
4f	4cc]	4a	8ff
.	.	.	8cc
4f	4cc	4a	8ff
.	.	.	8cc
4f	4cc	4a	4ff
4r	4r	4r	8ff
.	.	.	8bb-
=49	=49	=49	=49
4BB-	4F	4ff	8ddd-
.	.	.	8bb-
4C	8c	4ee-	8aa
.	8A	.	8ccc
4D-	4B-	4dd-	4bb-
4E-	4c	4gg-	8b-
.	.	.	8gg-
=50	=50	=50	=50
4F	4d-	4ff	8ff
.	.	.	8b-
4A	8e-	4cc	8a
.	8f	.	8ee-
4B-	4B-	4dd-	4dd-
4A-	4f	4B-	4dd
=51	=51	=51	=51
4G-	4e-	4b-	4ee-
4F	4a-	4a-	4ff
4E-	4b-	4g-	4gg-
4E-	4B-	4e-	4gg-
=52	=52	=52	=52
2.E-	2.c	2.g-	[2A
.	.	.	8A]
.	.	.	8gg-
4AA	4f	4cc	8ff
.	.	.	8ee-
=53	=53	=53	=53
4BB-	4f	4dd-	8dd-
.	.	.	8ddd-
4r	4r	4r	8ccc
.	.	.	8bb-
4C	4f	4ee-	8aa
.	.	.	8ggg-
4r	4r	4r	8fff
.	.	.	8eee-
=54	=54	=54	=54
4D-	4B-	4ff	4ddd-
2.r	2.r	2.r	4bbb-
.	.	.	4bbb-
.	.	.	4bbb-
=55	=55	=55	=55
4E-	4E-	4e-	4e-
4r	4r	4r	4r
4F	4F	4f	4f
4r	4r	4r	4r
=56	=56	=56	=56
4BB-	4B-	4B-	4B-
2r	2r	2r	2r
4c	4a-	4ee-	4gg-
=57	=57	=57	=57
4d-	4a-	4dd-	4ff
4c	4a-	4ee-	4gg-
4d-	4a-	4dd-	4ff
4d	4cc-	4ff	4aa-
=58	=58	=58	=58
4e-	4b-	4ee-	4gg-
4d	4cc-	4ff	4aa-
4e-	4b-	4ee-	4gg-
4e	4dd-	4gg	4bb-
=59	=59	=59	=59
4f	4cc	4ff	4aa
4e	4dd-	4gg	4bb-
4f	4cc	4ff	4aa
[4f	4b-	4ee	4ddd-
=60	=60	=60	=60
4f]	4a	4ff	4ccc
2f	4b-	4ee	4ddd-
.	4a	4ff	4ccc
4g-	[4cc	4b-	8bb-
.	.	.	8ee
=61	=61	=61	=61
4f	4cc]	4a	8ff
.	.	.	8cc
4g-	2cc	4b-	8bb-
.	.	.	8ee
4f	.	4a	8ff
.	.	.	8cc
4g-	[4cc	4b-	8bb-
.	.	.	8ee
=62	=62	=62	=62
4f	4cc]	4a	8ff
.	.	.	8cc
4f	4cc	4a	8ff
.	.	.	8cc
4f	4cc	4a	4ff
4r	4r	4r	8ff
.	.	.	8bb-
=63	=63	=63	=63
4BB-	4F	4ff	8ddd-
.	.	.	8bb-
4C	8c	4ee-	8aa
.	8A	.	8ccc
4D-	4B-	4dd-	4bb-
4E-	4c	4gg-	8b-
.	.	.	8gg-
=64	=64	=64	=64
4F	4d-	4ff	8ff
.	.	.	8b-
4A	8e-	4cc	8a
.	8f	.	8ee-
4B-	4B-	4dd-	4dd-
4A-	4f	4B-	4dd
=65	=65	=65	=65
4G-	4e-	4b-	4ee-
4F	4a-	4a-	4ff
4E-	4b-	4g-	4gg-
4E-	4B-	4e-	4gg-
=66	=66	=66	=66
1E-	1c	1g-	2.A
.	.	.	8a
.	.	.	8b-
=67	=67	=67	=67
1r	1r	1r	4cc
.	.	.	8cc
.	.	.	8dd-
.	.	.	4ee-
.	.	.	8ee-
.	.	.	8ff
=68	=68	=68	=68
1AA	1c	1e-	2.gg-
.	.	.	8ee-
.	.	.	8ff
=69	=69	=69	=69
1r	1r	1r	4gg-
.	.	.	8gg-
.	.	.	8ff
.	.	.	4ee-
.	.	.	8ee-
.	.	.	8ff
=70	=70	=70	=70
1r	1r	1r	4gg-
.	.	.	8gg-
.	.	.	8ff
.	.	.	4ee-
.	.	.	8ee-
.	.	.	8ff
=71	=71	=71	=71
1r	1r	1r	4gg-
.	.	.	8gg-
.	.	.	8ff
.	.	.	4ee-
.	.	.	8ee-
.	.	.	8ff
=72	=72	=72	=72
1r	1r	1r	4gg-
.	.	.	8gg-
.	.	.	8ff
.	.	.	4ee-
.	.	.	8gg-
.	.	.	8ff
=73	=73	=73	=73
1r	1r	1r	4ee-
.	.	.	8gg-
.	.	.	8ff
.	.	.	4ee-
.	.	.	8gg-
.	.	.	8ff
=74	=74	=74	=74
1r	1r	2.r	4ee-
.	.	.	8gg-
.	.	.	8ff
.	.	.	4ee-
.	.	8f	8ff
.	.	8a	8ee-
=75	=75	=75	=75
2.r	4r	4b-	4dd
.	8c	8e-	4ee-
.	8d	8f	.
.	4e-	4g	4cc
8BB-	8d	8f	8dd
8C	8e-	8e-	8cc
=76	=76	=76	=76
4D	4f	4d	4b-
4E-	4g	8c	4cc
.	.	8B-	.
4F	4c	4A	4f
4E-	8d	8B-	8g
.	8e-	8c	8a
=77	=77	=77	=77
4D	4f	4d	4b-
4C	4e-	4e-	4cc
4BB-	4d	4f	4dd
4EE-	4c	4b-	4gg
=78	=78	=78	=78
2FF	4c	8a	8cc
.	.	8b-	8b-
.	2.r	8a	8cc
.	.	8b-	8dd
2r	.	4a	8cc
.	.	.	8gg
.	.	4r	8ff
.	.	.	8ee-
=79	=79	=79	=79
4r	4r	4r	8dd
.	.	.	8ff
4BB-	4d	4f	8ee-
.	.	.	8dd
4r	4r	4r	8cc
.	.	.	8ee-
4F	4A	4e-	8dd
.	.	.	8cc
=80	=80	=80	=80
4r	4r	4r	8b-
.	.	.	8dd
4G	4B-	4d	8cc
.	.	.	8b-
4r	4r	4r	8a-
.	.	.	8cc
4D	4B-	4f	8b-
.	.	.	8a-
=81	=81	=81	=81
4E-	4B-	8g	4g
.	.	8dd	.
4E	4g	8cc	4bb-
.	.	8b-	.
2F	4f	4b-	2cc
.	4e-	4a	.
=82	=82	=82	=82
4BB-	4d	4b-	4b-
4B-	2.r	2r	4f
4BB-	.	.	4d
4r	.	8f	8a
.	.	8g	8b-
=83	=83	=83	=83
1r	4f	4a	4cc
.	8e-	4b-	4dd
.	8d	.	.
.	4c	4cc	4ee-
.	4r	8g	8b-
.	.	8a	8cc
=84	=84	=84	=84
2.r	4g	4b-	4dd
.	8f	4cc	4ee-
.	8e-	.	.
.	4d	4dd	4ff
8B-	8dd	8gg	8gg
8A	8cc	8ff#	8aa
=85	=85	=85	=85
4G	4b-	4gg	4bb-
4GG	4g	4b-	4ddd
4D	4cc	8a	2ff#
.	.	8ee-	.
4d	8b-	8dd	.
.	8a	8cc	.
=86	=86	=86	=86
4e-	4g	4b-	2.gg
8d	8f	4cc	.
8c	8e-	.	.
4B	4d	4dd	.
4r	4r	8dd	8ff
.	.	8ee-	8gg
=87	=87	=87	=87
1r	4r	4ff	4aa-
.	4g	8ee-	8gg
.	.	8dd	8ff
.	4a-	4cc	4ee-
.	8g	4dd	4ff
.	8f	.	.
=88	=88	=88	=88
1r	4e-	4ee-	4gg
.	4f	8dd	8ff
.	.	8cc	8ee-
.	4g	4b-	4dd
.	8f	4cc	4ee-
.	8e-	.	.
=89	=89	=89	=89
2.r	4d	4dd	4ff
.	4e-	8cc	8ee-
.	.	8b-	8dd
.	4f	4a	4cc
8B-	4f	8dd	4dd
8A	.	8cc	.
=90	=90	=90	=90
8G	8g	8b-	8ee
8F	8a	8a	8ff
8E	8b-	8g	8gg
8D	8cc	8f	8aa
4C	4dd	4e	4bb-
8c	8b-	4g	4ee
8B-	8g	.	.
=91	=91	=91	=91
8A	4f	4a	4ff
8F	.	.	.
8c	4b-	4g	4ee
8B-	.	.	.
8A	4cc	4f	4ff
8F	.	.	.
8C	8b-	4g	4ee
8BB-	8g	.	.
=92	=92	=92	=92
8AA	4f	4a	4ff
8FF	.	.	.
8C	8c	4g	4ee
8BB-	8B-	.	.
8AA	8A	4f	4ff
8FF	8F	.	.
4r	4r	8f	8a
.	.	8g	8b-
=93	=93	=93	=93
4FF	4F	8a	8cc
.	.	8f	8a
2.r	2.r	8a	8cc
.	.	8b-	8dd
.	.	8cc	8ee-
.	.	8a	8cc
.	.	8cc	8ee-
.	.	8dd	8ff
=94	=94	=94	=94
4r	4r	2.ee-	2.gg
8F	8A	.	.
8G	8B-	.	.
8A	8c	.	.
8F	8A	.	.
4r	4r	8dd	8ff
.	.	8cc	8ee-
=95	=95	=95	=95
4r	4r	2.ee-	2.gg
8F	8A	.	.
8G	8B-	.	.
8A	8c	.	.
8F	8A	.	.
4r	4r	8dd	8ff
.	.	8cc	8ee-
=96	=96	=96	=96
1r	1r	8ee-	8gg
.	.	8dd	8ff
.	.	8cc	8ee-
.	.	8ee-	8gg
.	.	8dd	8ff
.	.	8cc	8ee-
.	.	8ee-	8gg
.	.	8dd	8ff
=97	=97	=97	=97
1r	1r	8cc	8ee-
.	.	8ee-	8gg
.	.	8dd	8ff
.	.	8cc	8ee-
.	.	8ee-	8gg
.	.	8dd	8ff
.	.	8cc	8ee-
.	.	8ee-	8gg
=98	=98	=98	=98
1r	1r	8dd	8ff
.	.	8cc	8ee-
.	.	8ee-	8gg
.	.	8dd	8ff
.	.	8cc	8ee-
.	.	8f	8gg
.	.	8g	8ff
.	.	8a	8ee-
=99	=99	=99	=99
2r	8r	4b-	4dd
.	8B-	.	.
.	8c	8e-	4ee-
.	8d	8f	.
8r	4e-	4g	4cc
8AA	.	.	.
8BB-	8d	8f	8dd
8C	8e-	8e-	8cc
=100	=100	=100	=100
4D	4f	4d	4b-
4E-	4g	8c	4cc
.	.	8B-	.
4F	4c	4A	4f
4E-	8d	8B-	8g
.	8e-	8c	8a
=101	=101	=101	=101
4D	4f	4d	4b-
4C	4e-	4e-	4cc
4BB-	4d	4f	4dd
4EE-	4c	4b-	4gg
=102	=102	=102	=102
[1FF	2c	8a	8cc
.	.	8b-	8b-
.	.	8a	8cc
.	.	8b-	8dd
.	8r	8a	4cc
.	8ee-	8gg	.
.	8dd	8ff	8r
.	8cc	8ee-	8aa-
=103	=103	=103	=103
1FF_	8b	8dd	8gg
.	8dd	8ff	8ff
.	8cc	8ee-	8ee-
.	8b-	8dd	8gg
.	8a	8cc	8ff
.	8cc	8ee-	8ee-
.	8b-	8dd	8dd
.	8a	8cc	8ff
=104	=104	=104	=104
2FF]	8g	8b-	8ee-
.	8b-	8dd	8dd
.	8a	8cc	8cc
.	8g	8b-	8ee-
8F	8f	4a	8dd
8F#	8f#	.	8cc
8G	8g	[4g	8b-
8F	8f	.	8b
=105	=105	=105	=105
8E-	8e-	4g]	8cc
8G	8g	.	8b-
8F	8f	4a	8a
8E-	8e-	.	8cc
4D	4d	4b-	4b-
4AA	4f	4cc	4ee- 4f
=106	=106	=106	=106
4BB-	4B-	4b-	4dd 4f
2r	2r	4e-	4gg 4b-
.	.	4d	4ff 4b-
4D	4f	4aa- 4b-	4aa- 4b-
=107	=107	=107	=107
2E-	2B-	2b- 2gg	2gg 2b-
2E	2g	2d-	2bb- 2dd- 2e
=108	=108	=108	=108
4.r	4.r	4.r	4.r
8EE	8E	8e	8e
4.EE	4.E	4.e	4.e
16DD	16D	16d	16d
16EE	16E	16e	16e
=109	=109	=109	=109
[1FF	[1F	[1f	[1f
=110	=110	=110	=110
1FF]	1F]	2f]	2f_
.	.	2r	8f]
.	.	.	8g
.	.	.	8f
.	.	.	8e-
=111	=111	=111	=111
1r	1r	1r	8d
.	.	.	8f
.	.	.	8e-
.	.	.	8d
.	.	.	8c
.	.	.	8e-
.	.	.	8d
.	.	.	8c
=112	=112	=112	=112
1r	1r	1r	8B-
.	.	.	8d
.	.	.	8c
.	.	.	8B-
.	.	.	8A
.	.	.	8g
.	.	.	8f
.	.	.	8e-
=113	=113	=113	=113
1r	2r	8d	4d
.	.	8f	.
.	.	8e-	2.r
.	.	8d	.
.	8c	8c	.
.	8e-	4.r	.
.	8d	.	.
.	8c	.	.
=114	=114	=114	=114
8B-	4B-	1r	2r
8d	.	.	.
8c	2.r	.	.
8B-	.	.	.
8A	.	.	8r
4.r	.	.	8a-
.	.	.	8g
.	.	.	8f
=115	=115	=115	=115
1r	2r	8r	4e-
.	.	8g	.
.	.	8f	2.r
.	.	8e-	.
.	8r	4d	.
.	8f	.	.
.	8e-	4r	.
.	8d	.	.
=116	=116	=116	=116
8r	4c	1r	2r
8e-	.	.	.
8d	2.r	.	.
8c	.	.	.
4B	.	.	8r
.	.	.	8G
4r	.	.	8A
.	.	.	8B
=117	=117	=117	=117
1r	2r	8r	4c
.	.	8B	.
.	.	8c	2.r
.	.	8d	.
.	8r	4e-	.
.	8F	.	.
.	8G	4r	.
.	8A	.	.
=118	=118	=118	=118
8r	4B-	1r	2r
8A	.	.	.
8B-	2r	.	.
8c	.	.	.
4d	.	.	8r
.	.	.	8g
4r	4f	.	8a
.	.	.	8b
=119	=119	=119	=119
4r	4e-	8r	4cc
.	.	8b	.
4d	2r	8cc	4.r
.	.	8dd	.
4c	.	4ee-	.
.	.	.	8f
4r	4e-	4r	8g
.	.	.	8a
=120	=120	=120	=120
4r	4d	8r	4b-
.	.	8a	.
4c	2r	8b-	4.r
.	.	8cc	.
4B-	.	4dd	.
.	.	.	8dd
4r	4cc	4r	8ee
.	.	.	8ff#
=121	=121	=121	=121
1r	4b-	4r	8gg
.	.	.	8ff#
.	2r	4a	8gg
.	.	.	8aa
.	.	4g	8bb-
.	.	.	8cc
.	4b-	4r	8dd
.	.	.	8ee
=122	=122	=122	=122
2r	4a-	4r	8ff
.	.	.	8ee
.	2.r	4g	8ff
.	.	.	8gg
8r	.	4f	4aa-
8C	.	.	.
8BB-	.	4f	4dd
8AA-	.	.	.
=123	=123	=123	=123
8GG	8B-	4g	4ee-
8AA-	8c	.	.
8GG	8B-	4a-	4ff
8FF	8A-	.	.
8EE-	4G	4b-	4gg
8AA-	.	.	.
8GG	4r	4d	4b
8FF	.	.	.
=124	=124	=124	=124
8EE-	8G	4e-	4cc
8FF	8A-	.	.
8EE-	8G	4f	4dd
8DD	8F	.	.
4CC	4E-	4g	8ee-
.	.	.	8gg
4FF	4c	4a	8ff
.	.	.	8ee-
=125	=125	=125	=125
4BB-	4d	4b-	8dd
.	.	.	8ee-
4.r	4.r	4.r	8dd
.	.	.	8cc
.	.	.	8b-
8F	8A	8ee-	8gg
8G	8B-	8dd	8ff
8A	8c	8cc	8ee-
=126	=126	=126	=126
4B-	4d	4b-	8dd
.	.	.	8ee-
4.r	4.r	4.r	8dd
.	.	.	8cc
.	.	.	8b-
8F	8A	8ee-	8gg
8G	8B-	8dd	8ff
8A	8c	8cc	8ee-
=127	=127	=127	=127
8B-	8d	8b-	8dd
8F	8A	8ee-	8gg
8G	8B-	8dd	8ff
8A	8c	8cc	8ee-
8B-	8d	8b-	8dd
8F	8A	8ee-	8gg
8G	8B-	8dd	8ff
8A	8c	8cc	8ee-
=128	=128	=128	=128
8B-	8d	8b-	8dd
8F	8A	8ee-	8gg
8G	8B-	8dd	8ff
8A	8c	8cc	8ee-
8B-	8d	8b-	8dd
8F	8A	8ee-	8gg
8G	8B-	8dd	8ff
8A	8c	8cc	8ee-
=129	=129	=129	=129
4B-	4d	4b-	8dd
.	.	.	8ff
4r	4r	4r	8ee-
.	.	.	8dd
4F	4e-	4a	8cc
.	.	.	8ee-
4r	4r	4r	8dd
.	.	.	8cc
=130	=130	=130	=130
4G	4d	4b-	8b-
.	.	.	8dd
4E	4e	4g	8cc
.	.	.	8b-
4F	8f	8f	8a
.	8c	8A	8f
4E-	8d	8B-	8g
.	8e-	8c	8a
=131	=131	=131	=131
4D	4f	4d	8cc
.	.	.	8b-
4C	4e-	4e-	8dd
.	.	.	8cc
4BB-	4d	4f	8ee-
.	.	.	8dd
4EE-	4c	4b-	8gg
.	.	.	8ee-
=132	=132	=132	=132
2FF	4c	8a	8cc
.	.	8b-	8b-
.	2.r	8a	8cc
.	.	8b-	8dd
2r	.	4a	8cc
.	.	.	8gg
.	.	4r	8ff
.	.	.	8ee-
=133	=133	=133	=133
4B-	4d	4f	8dd
.	.	.	8ff
4r	4r	4r	8ee-
.	.	.	8dd
4F	4A	4e-	8cc
.	.	.	8ee-
4r	4r	4r	8dd
.	.	.	8cc
=134	=134	=134	=134
4G	4B-	4d	8b-
.	.	.	8dd
4r	4r	4r	8cc
.	.	.	8b-
4D	4B-	4f	8a-
.	.	.	8cc
4r	4r	4r	8b-
.	.	.	8a-
=135	=135	=135	=135
4E-	4B-	8g	4g
.	.	8dd	.
4E	4g	8cc	4bb-
.	.	8b-	.
2F	4f	4b-	2cc
.	4e-	4a	.
=136	=136	=136	=136
4BB-	4d	4b-	4b-
4B-	2.r	4f	4.r
4BB-	.	4d	.
.	.	.	8dd
4r	.	4r	8cc
.	.	.	8b-
=137	=137	=137	=137
1r	1r	4f	8a
.	.	.	8cc
.	.	4g	8b-
.	.	.	8dd
.	.	4a	8cc
.	.	.	8ff
.	.	4b-	8ee
.	.	.	8gg
=138	=138	=138	=138
1r	1r	4a	8ff
.	.	.	8aa
.	.	2.r	8gg
.	.	.	8ee
.	.	.	8ff
.	.	.	8dd
.	.	.	8cc
.	.	.	8b-
=139	=139	=139	=139
1r	1r	4f	8a
.	.	.	8cc
.	.	4g	8b-
.	.	.	8dd
.	.	4a	8cc
.	.	.	8ff
.	.	4b-	8ee
.	.	.	8gg
=140	=140	=140	=140
1r	1r	4a	8ff
.	.	.	8aa
.	.	2.r	8gg
.	.	.	8ee
.	.	.	8ff
.	.	.	8dd
.	.	.	8cc
.	.	.	8b-
=141	=141	=141	=141
1r	1r	4f	8a
.	.	.	8cc
.	.	4g	8b-
.	.	.	8dd
.	.	4a	8cc
.	.	.	8ee-
.	.	4b-	8dd
.	.	.	8ff
=142	=142	=142	=142
1r	1r	4cc	8ee-
.	.	.	8dd
.	.	2.r	8ee-
.	.	.	8dd
.	.	.	8ee-
.	.	.	8gg
.	.	.	8ff
.	.	.	8ee-
=143	=143	=143	=143
4B-	4f	4b-	8dd
.	.	.	8ff
4r	4r	4r	8ee-
.	.	.	8dd
4F	4e-	4a	8cc
.	.	.	8ee-
4r	4r	4r	8dd
.	.	.	8cc
=144	=144	=144	=144
4G	4d	4b-	8b-
.	.	.	8dd
4E	4e	4g	8cc
.	.	.	8b-
4F	8f	8f	8a
.	8c	8A	8f
4E-	8d	8B-	8g
.	8e-	8c	8a
=145	=145	=145	=145
4D	4f	4d	8cc
.	.	.	8b-
4C	4e-	4e-	8dd
.	.	.	8cc
4BB-	4d	4f	8ee-
.	.	.	8dd
4EE-	4c	4b-	8gg
.	.	.	8ee-
=146	=146	=146	=146
2FF	4c	8a	8cc
.	.	8b-	8b-
.	2.r	8a	8cc
.	.	8b-	8dd
2r	.	4a	8cc
.	.	.	8gg
.	.	4r	8ff
.	.	.	8ee-
=147	=147	=147	=147
4r	4r	4r	8dd
.	.	.	8ff
4BB-	4d	4f	8ee-
.	.	.	8dd
4r	4r	4r	8cc
.	.	.	8ee-
4F	4A	4e-	8dd
.	.	.	8cc
=148	=148	=148	=148
4r	4r	4r	8b-
.	.	.	8dd
4G	4B-	4d	8cc
.	.	.	8b-
4r	4r	4r	8a-
.	.	.	8cc
4D	4B-	4f	8b-
.	.	.	8a-
=149	=149	=149	=149
4E-	4B-	8g	4g
.	.	8dd	.
4E	4g	8cc	4bb-
.	.	8b-	.
2F	8f	4b-	2cc
.	8g	.	.
.	8f	4a	.
.	8e-	.	.
=150	=150	=150	=150
4BB-	8d	8b-	4b-
.	8e-	8gg	.
2.r	8d	8ff	2bb-
.	8c	8ee-	.
.	8B-	8dd	.
.	8g	8ee-	.
.	8f	8dd	[4bb-
.	8e-	8cc	.
=151	=151	=151	=151
4BB-	8d	8b-	4bb-]
.	8e-	8gg	.
2.r	8d	8ff	2bb-
.	8c	8ee-	.
.	8B-	8dd	.
.	8g	8ee-	.
.	8f	8dd	[4bb-
.	8e-	8cc	.
=152	=152	=152	=152
4BB-	8d	4b-	8bb-]
.	8e-	.	8gg
4.r	8d	2r	8ff
.	8c	.	8ee-
.	4B-	.	4dd
8d	.	.	.
8c	4c	4g	4ee
8B-	.	.	.
=153	=153	=153	=153
8A	4c	4f	4ff
8B-	.	.	.
8A	2r	2r	2r
8G	.	.	.
8F	.	.	.
8d	.	.	.
8c	4b-	4g	4ee
8B-	.	.	.
=154	=154	=154	=154
8A	8cc	4f	4ff
8B-	8dd	.	.
8A	8cc	2r	2r
8G	8b-	.	.
8F	8a	.	.
8G	8b-	.	.
8F	8a	4cc	4aa
8E-	8g	.	.
=155	=155	=155	=155
8D	8f	4b-	4bb-
8E-	8g	.	.
8D	8f	2r	2r
8C	8e-	.	.
8BB-	8d	.	.
8C	8e-	.	.
8BB-	8d	4ff	4ddd
8AA-	8c	.	.
=156	=156	=156	=156
8GG	8B-	4ee-	4eee-
8AA-	8c	.	.
8GG	8B-	4r	4r
8FF	8A-	.	.
4EE-	4G	4e- 4gg 4b-	4ggg
4r	4r	4r	4r
=157	=157	=157	=157
1r	1r	1r	2r
.	.	.	8r
.	.	.	8aa-
.	.	.	8gg
.	.	.	8ff#
=158	=158	=158	=158
1r	4b	4dd	8gg
.	.	.	8aa-
.	4r	4r	8gg
.	.	.	8ff#
.	4b	4dd	8gg
.	.	.	8aa-
.	4r	4r	8gg
.	.	.	8ff
=159	=159	=159	=159
1r	4cc	4ee-	8ee-
.	.	.	8dd
.	2.r	2.r	8ee-
.	.	.	8dd
.	.	.	8cc
.	.	.	8gg
.	.	.	8ff
.	.	.	8ee
=160	=160	=160	=160
1r	4a	4cc	8ff
.	.	.	8gg
.	4r	4r	8ff
.	.	.	8ee
.	4a	4cc	8ff
.	.	.	8gg
.	4r	4r	8ff
.	.	.	8ee-
=161	=161	=161	=161
2r	4b-	4dd	8dd
.	.	.	8ee-
.	4.r	4.r	8dd
.	.	.	8cc
8r	.	.	8b-
8B-	8b-	8b-	8bb-
8A	8a	8a	8aa
8G	8g	8g	8gg
=162	=162	=162	=162
8F	8f	8f	8ff
8G	8g	8g	8gg
8F	8f	8f	8ff
8E-	8e-	8e-	8ee-
8D	8d	8d	8dd
8B-	8b-	8b-	8bb-
8A	8a	8a	8aa
8G	8g	8g	8gg
=163	=163	=163	=163
8F	8f	8f	8ff
8G	8g	8g	8gg
8F	8f	8f	8ff
8E-	8e-	8e-	8ee-
8D	8d	8d	8dd
8d	8dd	8dd	8ddd
8c	8cc	8cc	8ccc
8B-	8b-	8b-	8bb-
=164	=164	=164	=164
8A	8a	8a	8aa
8B-	8b-	8b-	8bb-
8A	8a	8a	8aa
8G	8g	8g	8gg
8F	8f	8f	8ff
8G	8g	8g	8gg
8F	8f	8f	8ff
8E-	8e-	8e-	8ee-
=165	=165	=165	=165
8D	8d	8d	8dd
8E-	8e-	8ee-	8ee-
8D	8d	8dd	8dd
8C	8c	8cc	8cc
8BB-	8B-	8b-	8b-
8C	8c	8cc	8cc
8BB-	8B-	8b-	8b-
8AA	8A	8a	8a
=166	=166	=166	=166
8GG	8G	8g	8g
8AA-	8A-	8a-	8a-
8GG	8G	8g	8g
8FF	8F	8f	8f
8EE-	8E-	8e-	8e-
8FF	8F	8f	8f
8EE-	8E-	8e-	8e-
8DD	8D	8d	8d
=167	=167	=167	=167
1CC	1C	1c	1c
=168	=168	=168	=168
4DD-	4D-	4d-	4d-
4DD	4D	4d	4d
4EE-	4E-	4e-	4e-
4EE	4E	4e	4e
=169	=169	=169	=169
1FF	1F	4f	4f
.	.	2dd	8b-
.	.	.	8dd
.	.	.	4ff
.	.	4dd	4bb-
=170	=170	=170	=170
4FF	4e- 4c	4e- 4cc	4aa
4FF	4e- 4c	4a 4e-	4ccc
4FF	4e- 4c	4e- 4a	4eee-
4FF	4e- 4c	4cc 4e-	4aa
=171	=171	=171	=171
4BB-	4d 4B-	4d 4b-	4bb-
4r	4r	4r	4r
4F	4c 4f	4f 4ee-	4ccc
4r	4r	4r	4r
=172	=172	=172	=172
4B-	4f 4B-	4dd 4f	4ddd
4r	4r	4r	4r
4F	4c	4ee- 4f	4aa
4r	4r	4r	4r
=173	=173	=173	=173
4BB-	4d	4dd 4f	4bb-
2.r	2.r	2.r	2.r
=174	=174	=174	=174
2F	2e- 2c	2a 2c 2e-	2ff 2f 2a
2r	2r	2r	2r
=175	=175	=175	=175
2B- 2D 2BB-	2d 2B-	2b- 2d 2B-	2B- 2f 2dd
2r	2r	2r	2r
==	==	==	==
*-	*-	*-	*-
!!!RWG1: This file contains only pitch and duration data.
!!!RWG2: Transposing instruments are not transposed.
!!!RWG3: Spines may have incompatible meters.
!!!RWG4: Durations of rests and tied notes may be interpreted.
!!!RWG: Key is interpreted using the Humdrum key tool.
!!!GTL: 6 Quartetti ("Erdödy")
!!!OPT: Sunrise
!!!AFT: stage1
!!!END: 1997/04/15
!!!KEY: 1547263457
!!!EMD: Converted from MuseData to Humdrum Dec 16, 2000, by Andreas Kornstaedt using muse2kern.
!!!EMD: Manual editing by Craig Sapp, Nov 2001
